icons/desktop/16/svg/footprints-slash-16.svg

<svg width="16" height="16" viewBox="0 0 16 16" fill="none" xmlns="http://www.w3.org/2000/svg">
<path fill-rule="evenodd" clip-rule="evenodd" d="M0.220681 0.221139C0.513556 -0.0715709 0.988378 -0.0716116 1.28123 0.221139L15.7812 14.7211C16.0741 15.014 16.074 15.4888 15.7812 15.7817C15.4883 16.0746 15.0136 16.0746 14.7207 15.7817L13.8027 14.8637C13.5561 15.2073 13.2284 15.4965 12.8359 15.6967C12.4369 15.8997 11.9985 16.0014 11.5586 16.0014C11.1927 16.0014 10.8245 15.9315 10.4746 15.7885C9.24887 15.2894 8.56971 13.9236 8.89353 12.6118L8.9824 12.2602L9.46287 10.9252C9.40691 10.7742 9.33592 10.569 9.2617 10.3227L6.7197 7.78071C6.65211 8.00259 6.59144 8.18935 6.54002 8.32856L7.1074 10.0141C7.43238 11.328 6.75315 12.6947 5.52732 13.1938C5.17745 13.3367 4.81018 13.4066 4.44431 13.4067C4.00439 13.4067 3.56592 13.3049 3.16697 13.102C2.47197 12.747 1.96909 12.1231 1.78709 11.3891L1.61619 10.5063C1.54118 9.8754 1.38432 9.25638 1.15037 8.66547C0.149306 6.13984 0.0971667 5.74929 0.0771267 5.60298C-0.144694 3.94892 0.133742 2.65671 0.670877 1.73188L0.220681 1.28169C-0.0721203 0.988786 -0.0721814 0.514002 0.220681 0.221139ZM10.3496 12.9711C10.2026 13.5641 10.5 14.1779 11.041 14.3989C11.404 14.5478 11.8123 14.5338 12.1553 14.3588C12.4131 14.2278 12.6077 14.0174 12.709 13.77L11.0498 12.1108L10.6816 12.0122L10.3496 12.9711ZM3.05076 10.0278C3.06676 10.1297 3.09541 10.2276 3.1074 10.3295L3.14549 10.6606L3.24412 11.0297C3.32113 11.3405 3.54092 11.6081 3.84763 11.7641C4.18963 11.9371 4.59592 11.9511 4.96092 11.8041C5.50182 11.5831 5.79928 10.9704 5.6533 10.3764L5.56638 10.0288L5.3408 9.41352L3.05076 10.0278ZM1.7949 2.8559C1.53423 3.49801 1.42188 4.35606 1.56248 5.40278C1.56765 5.44161 1.64996 5.85834 2.54392 8.11274C2.60289 8.2617 2.64138 8.41782 2.69236 8.56977L5.08592 7.92719C5.1629 7.72913 5.34807 7.2102 5.49412 6.55512L1.7949 2.8559Z" fill="black"/>
<path d="M8.97263 6.12739C9.68865 3.30945 11.5603 2.34588 13.1123 2.64887C14.7811 2.9721 16.3738 4.846 15.9238 8.19672C15.9028 8.35583 15.8521 8.72938 14.8506 11.2602C14.7766 11.4481 14.724 11.6434 14.665 11.8364L13.4785 10.6508C14.3312 8.49269 14.4274 8.05982 14.4375 7.99555C14.7445 5.71669 13.86 4.32067 12.8271 4.12153C12.7452 4.10555 12.6601 4.09713 12.5752 4.09712C11.7742 4.09712 10.8567 4.80851 10.4267 6.49751C10.3457 6.8155 10.3204 7.15077 10.3164 7.48676L8.97068 6.14106C8.9716 6.1362 8.97166 6.13128 8.97263 6.12739Z" fill="black"/>
<path d="M2.88963 0.0541471C4.44163 -0.251853 6.3133 0.716639 7.0283 3.53364C7.09527 3.79558 7.13414 4.06258 7.16013 4.33051L2.88474 0.0551236L2.88963 0.0541471Z" fill="black"/>
</svg>

<!-- This Source Code Form is subject to the terms of the Mozilla Public
   - License, v. 2.0. If a copy of the MPL was not distributed with this
   - file, You can obtain one at http://mozilla.org/MPL/2.0/. -->
<svg xmlns="http://www.w3.org/2000/svg" width="16" height="16" fill="context-fill" fill-opacity="context-fill-opacity" viewBox="0 0 16 16">
    <path fill-rule="evenodd" d="M.22.221a.75.75 0 0 1 1.061 0l14.5 14.5a.75.75 0 0 1-1.06 1.06l-.918-.917a2.7 2.7 0 0 1-.967.833 2.8 2.8 0 0 1-1.277.304c-.366 0-.734-.07-1.084-.213-1.226-.499-1.905-1.864-1.581-3.176l.088-.352.48-1.335a10 10 0 0 1-.2-.602L6.72 7.78c-.068.222-.129.408-.18.548l.567 1.685c.325 1.314-.354 2.68-1.58 3.18-.35.143-.717.213-1.083.213-.44 0-.878-.102-1.277-.305a2.65 2.65 0 0 1-1.38-1.713l-.17-.883a7.4 7.4 0 0 0-.467-1.84C.15 6.14.097 5.748.077 5.602c-.222-1.654.057-2.946.594-3.871l-.45-.45a.75.75 0 0 1 0-1.06m10.13 12.75c-.147.593.15 1.207.691 1.428.363.149.771.135 1.114-.04a1.16 1.16 0 0 0 .554-.589l-1.66-1.66-.367-.098zm-7.3-2.943c.017.102.045.2.057.301l.038.332.1.369c.076.31.296.578.603.734a1.35 1.35 0 0 0 1.113.04c.54-.22.838-.834.692-1.428l-.087-.347-.225-.615zM1.796 2.856c-.26.642-.373 1.5-.233 2.547.006.039.088.455.982 2.71.059.149.097.305.148.457l2.394-.643c.077-.198.262-.717.408-1.372z" clip-rule="evenodd" />
    <path d="M8.973 6.127c.716-2.818 2.587-3.781 4.14-3.478 1.668.323 3.26 2.197 2.81 5.548-.02.159-.07.532-1.072 3.063-.074.188-.127.383-.186.576l-1.186-1.185c.852-2.158.948-2.591.959-2.655.306-2.28-.578-3.675-1.61-3.874a1.3 1.3 0 0 0-.253-.025c-.8 0-1.718.712-2.148 2.4a4.2 4.2 0 0 0-.11.99L8.97 6.14q0-.008.002-.014M2.89.054c1.552-.306 3.423.663 4.138 3.48.067.262.106.529.132.797L2.885.055z" />
</svg>
